icons/svg/functional-icons/halt_small_2.svg

<?xml version="1.0" encoding="UTF-8" standalone="no"?>
<svg
   xmlns:dc="http://purl.org/dc/elements/1.1/"
   xmlns:cc="http://creativecommons.org/ns#"
   xmlns:rdf="http://www.w3.org/1999/02/22-rdf-syntax-ns#"
   xmlns:svg="http://www.w3.org/2000/svg"
   xmlns="http://www.w3.org/2000/svg"
   xmlns:sodipodi="http://sodipodi.sourceforge.net/DTD/sodipodi-0.dtd"
   xmlns:inkscape="http://www.inkscape.org/namespaces/inkscape"
   width="580"
   height="580"
   id="svg2"
   version="1.1"
   inkscape:version="0.91 r"
   sodipodi:docname="halt_small_2.svg">
  <defs
     id="defs13" />
  <sodipodi:namedview
     pagecolor="#ffffff"
     bordercolor="#666666"
     borderopacity="1"
     objecttolerance="10"
     gridtolerance="10000"
     guidetolerance="10"
     inkscape:pageopacity="0"
     inkscape:pageshadow="2"
     inkscape:window-width="1920"
     inkscape:window-height="1004"
     id="namedview11"
     showgrid="true"
     inkscape:snap-page="true"
     inkscape:snap-bbox="true"
     inkscape:zoom="0.57543865"
     inkscape:cx="262.24223"
     inkscape:cy="272.44283"
     inkscape:window-x="1680"
     inkscape:window-y="0"
     inkscape:window-maximized="1"
     inkscape:current-layer="svg2"
     inkscape:bbox-nodes="true"
     inkscape:bbox-paths="true"
     inkscape:snap-bbox-edge-midpoints="true"
     inkscape:snap-bbox-midpoints="true"
     inkscape:snap-object-midpoints="true"
     inkscape:snap-center="true"
     inkscape:object-paths="false"
     inkscape:object-nodes="true"
     inkscape:snap-smooth-nodes="false"
     inkscape:snap-midpoints="false"
     inkscape:snap-intersection-paths="false"
     inkscape:snap-nodes="true"
     inkscape:snap-global="false">
    <inkscape:grid
       type="xygrid"
       id="grid4152"
       spacingx="36.25"
       spacingy="36.25" />
  </sodipodi:namedview>
  <metadata
     id="metadata2975">image/svg+xmlen<rdf:RDF>
  <cc:Work
     rdf:about="">
    <dc:format>image/svg+xml</dc:format>
    <dc:type
       rdf:resource="http://purl.org/dc/dcmitype/StillImage" />
    <dc:title />
  </cc:Work>
</rdf:RDF>
</metadata>
  <path
     style="color:#000000;clip-rule:nonzero;display:inline;overflow:visible;visibility:visible;opacity:0.75400002;isolation:auto;mix-blend-mode:normal;color-interpolation:sRGB;color-interpolation-filters:linearRGB;solid-color:#000000;solid-opacity:1;fill:#fefefe;fill-opacity:1;fill-rule:nonzero;stroke:none;stroke-width:5;stroke-linecap:butt;stroke-linejoin:miter;stroke-miterlimit:4;stroke-dasharray:none;stroke-dashoffset:0;stroke-opacity:1;color-rendering:auto;image-rendering:auto;shape-rendering:auto;text-rendering:auto;enable-background:accumulate"
     d="m 240.87547,150.96531 c -27.80701,0 -50.25854,12.68261 -60.86311,27.71605 -10.60455,15.03344 -10.9108,31.84785 -10.9108,31.84785 -0.003,0.17505 -0.005,0.35013 -0.005,0.52521 0.0358,67.8933 0,63.88539 0,159.72378 0,7.36917 2.7621,15.26176 6.76438,21.65413 l -1.3789,1.99517 c -13.91418,20.14125 0.49944,47.62383 24.97953,47.62867 l 44.079,0 c 10.46335,-5.9e-4 20.18941,-5.38771 25.74039,-14.25722 l 9.88965,-15.80522 21.63462,0 9.8441,15.77432 c 5.54724,8.88722 15.28353,14.2876 25.75991,14.28812 l 44.12941,0 c 24.48004,-0.005 38.89357,-27.48746 24.97941,-47.62867 l -1.23906,-1.79354 c 3.96106,-6.42563 6.62454,-14.28079 6.62454,-21.49477 0,-52.6584 0.11351,-55.10855 0,-160.13355 -4.4e-4,-0.1572 -0.002,-0.31439 -0.005,-0.47156 0,0 -0.2544,-16.60362 -10.65878,-31.6332 -10.40437,-15.02957 -32.77675,-27.93557 -60.33951,-27.93557 l -99.02491,0 z"
     id="path4216"
     inkscape:connector-curvature="0"
     sodipodi:nodetypes="csccsccccccccccscsccsscc" />
  <g
     id="g1327-1"
     transform="translate(432.01915,-130.27361)" />
  <path
     style="fill:#0092da;stroke:none;stroke-width:5"
     d="m 240.87547,181.3302 c -40.91594,0 -41.4139,29.70796 -41.4139,29.70796 0.0358,67.90334 0,63.90894 0,159.73976 0,12.83415 20.77606,10.85092 20.77606,10.85092 l -20.77606,30.06245 44.079,0 18.81179,-30.06245 55.2955,0 18.76138,30.06245 44.12941,0 -20.77606,-30.06245 c 0,0 20.77606,2.62887 20.77606,-10.48921 0,-52.70199 0.11349,-55.09885 0,-160.10147 0,0 -0.49297,-29.70796 -40.63827,-29.70796 z m -11.23439,36.53217 120.71806,0 -0.026,72.99215 -120.71805,0 z m 15.06862,103.15215 c 8.33384,0 15.08976,6.75592 15.08976,15.08976 0,8.33384 -6.75592,15.08976 -15.08976,15.08976 -8.33384,0 -15.08976,-6.75592 -15.08976,-15.08976 0,-8.33384 6.75592,-15.08976 15.08976,-15.08976 z m 90.6231,0.10407 c 8.33384,0 15.08975,6.75592 15.08975,15.08976 0,8.33384 -6.75591,15.08976 -15.08975,15.08976 -8.33385,0 -15.08976,-6.75592 -15.08976,-15.08976 0,-8.33384 6.75591,-15.08976 15.08976,-15.08976 z"
     id="svg_1-7"
     inkscape:connector-curvature="0"
     sodipodi:nodetypes="sccccccccccccsscccccssssssssss" />
</svg>

<svg width="580" height="580" viewBox="0 0 580 580" fill="none" xmlns="http://www.w3.org/2000/svg">
<path opacity="0.754" d="M240.875 150.965C213.068 150.965 190.616 163.648 180.012 178.681C169.407 193.715 169.101 210.529 169.101 210.529C169.098 210.704 169.096 210.879 169.096 211.054C169.132 278.948 169.096 274.94 169.096 370.778C169.096 378.147 171.858 386.04 175.861 392.432L174.482 394.428C160.567 414.569 174.981 442.051 199.461 442.056H243.54C254.003 442.056 263.73 436.668 269.281 427.799L279.17 411.994H300.805L310.649 427.768C316.196 436.655 325.932 442.056 336.409 442.056H380.538C405.018 442.051 419.432 414.569 405.518 394.428L404.279 392.634C408.24 386.208 410.903 378.353 410.903 371.139C410.903 318.481 411.017 316.031 410.903 211.006C410.903 210.848 410.901 210.691 410.898 210.534C410.898 210.534 410.644 193.93 400.239 178.901C389.835 163.871 367.463 150.965 339.9 150.965H240.875H240.875Z" fill="#FEFEFE"/>
<path d="M240.876 181.33C199.96 181.33 199.462 211.038 199.462 211.038C199.498 278.941 199.462 274.947 199.462 370.778C199.462 383.612 220.238 381.629 220.238 381.629L199.462 411.691H243.541L262.353 381.629H317.648L336.41 411.691H380.539L359.763 381.629C359.763 381.629 380.539 384.258 380.539 371.139C380.539 318.438 380.652 316.041 380.539 211.038C380.539 211.038 380.046 181.33 339.901 181.33H240.876ZM229.641 217.862H350.359L350.333 290.854H229.615L229.641 217.862ZM244.71 321.014C253.044 321.014 259.8 327.77 259.8 336.104C259.8 344.438 253.044 351.194 244.71 351.194C236.376 351.194 229.62 344.438 229.62 336.104C229.62 327.77 236.376 321.014 244.71 321.014V321.014ZM335.333 321.118C343.667 321.118 350.423 327.874 350.423 336.208C350.423 344.542 343.667 351.298 335.333 351.298C326.999 351.298 320.243 344.542 320.243 336.208C320.243 327.874 326.999 321.118 335.333 321.118Z" fill="#0092DA"/>
</svg>
